Origami/48x48/apps/seamonkey.svg

<svg width="48" height="48" version="1.1" viewBox="0 0 48 48" xmlns="http://www.w3.org/2000/svg">
 <path d="m4.0215 24.418a20 20 0 0 0 -0.0215 0.582 20 20 0 0 0 20 20 20 20 0 0 0 20 -20 20 20 0 0 0 -0.021 -0.418 20 20 0 0 1 -19.979 19.418 20 20 0 0 1 -19.978 -19.582z" opacity=".2"/>
 <path d="m24.088417 18.058355c-11.045695 0-20.088417-5.10405-20.088417 5.941645s8.954305 20 20 20 20-8.954305 20-20-8.865888-5.941645-19.911583-5.941645z" style="fill:#4882e3"/>
 <path d="m24 4a20 20 0 0 0 -20 20 20 20 0 0 0 0.021484 0.417969 19.999932 19.999932 0 0 1 0.033203 -0.896485c0.00862 1.99e-4 0.012875-1.98e-4 0.021484 0a19.999932 19.999932 0 0 1 0.056641 -0.955078c2.1844959-1.09489 4.1826651-1.533092 6.0624995-1.544922 1.584486-0.01 3.086726 0.284225 4.554688 0.720704 5.027029 0.295818 9.464785 2.442608 14.744141 2.71289 4.971208-0.219835 11.608721-2.825647 14.193359-3.453125a19.999932 19.999932 0 0 1 0.226562 1.619141c0.0021 2.35e-4 0.0057-2.36e-4 0.0078 0a19.999932 19.999932 0 0 1 0.07422 1.480468 20 20 0 0 0 0.0039185 -0.101562 20 20 0 0 0 -20 -20z" style="fill:#335a9e"/>
 <path d="m43.744141 20.96875c-3.021385 0.860755-9.582076 3.279905-14.25 3.486328-8.671783-0.443961-15.099286-5.894638-25.480469-0.195312 0.016791 1.006204 0.1095026 2.009705 0.2773437 3.001953 0.8985364-0.305288 2.58349-0.475512 5.6640625 0.261719 5.6324539 1.347936 13.599782 0.589434 18.125-0.806641 4.525228-1.396077 9.123744-1.937609 11.771484-2.082031 1.758188-0.0959 3.213765 0.786217 4.021485 1.40039 0.038447-0.337892 0.068678-0.676322 0.089844-1.015625 0.021165-0.339303 0.033267-0.67948 0.037109-1.019531a20 20 0 0 0 -0.255859 -3.03125z" style="fill:#7767c0"/>
 <path d="m4.0175781 23.519531c-0.0077843 0.16008-0.0136441 0.320248-0.0175781 0.480469a20 20 0 0 0 0.4296875 4.09375c1.0210374-0.102605 2.8548643-0.280507 6.0917965 0.494141 5.498328 1.315843 10.715336-0.986772 15.132813-2.34961 0.270418-0.08343 0.540773-0.150942 0.806641-0.207031-0.003001-7.3e-5 -0.008699 7.5e-5 -0.011719 0-7.632459-1.897807-10.436357-2.230997-22.431641-2.511719zm22.44336 2.511719c0.9573 0.02214 2.030695-0.03422 3.15039-0.123047-1.002789-0.11957-2.055896-0.107851-3.15039 0.123047zm3.15039-0.123047c2.732897 0.325858 5.082329 1.616519 6.810547 2.033203 3.664112 0.883438 5.739903 1.299451 6.896484 1.201172a20 20 0 0 0 0.619141 -3.632812c0.003721-0.054305 0.010314-0.11006 0.013672-0.164063a20 20 0 0 0 0.048828 -1.345703c-0.0012-0.03125-0.002506-0.0625-0.003906-0.09375-4.492279 0.594737-9.934669 1.648918-14.384766 2.001953z" style="fill:#595afd"/>
 <path d="m32.65374 11.0004c-2.10071-0.104175-4.15668 0.582883-5.38017 2.267419-6.68e-4 4.98e-4 -0.0013 9.98e-4 -2e-3 0.0015-1.45922 2.036921-2.22855 4.432742-2.86666 6.766236-1e-6 5e-4 -1e-6 1e-3 0 0.0015-0.8822 3.267526-2.3719 6.360034-4.24714 9.18523-3.88706 5.827499-9.122845 10.898764-15.690395 13.458789-0.1479862 0.07178-0.2480185 0.20958-0.37675 0.318361-0.2494936 0.234416-0.056564 0.651464 0.28362 0.61309 4.60546-0.541071 8.197515-3.807503 11.594765-6.529568 2.73093-0.267511 5.42467-0.800778 8.06471-1.505615 0.0013-4.92e-4 0.0027-9.91e-4 4e-3 -0.0015 3.71027-1.043024 8.01958-2.488433 10.5515-5.615457 2.52389-3.095161 2.93279-6.902177 2.01078-10.633932-0.31352-1.491298-1.97049-3.019801-3.6-3.342106-0.0438-0.15412 0.0145-0.828525-0.02869-0.983947 0.35334-0.387138 1.087695-0.681862 1.438215-1.189148 0.38951-0.563719 0.716575-0.961561 0.516925-1.734315-0.01073-0.04084-0.02864-0.07944-0.0529-0.113999-0.42967-0.619809-1.51258-0.961277-2.22066-0.962538z" style="opacity:.2"/>
 <path d="m9.953125 21.980495c-1.82885 0.01151-3.7717139 0.435678-5.8828125 1.451172l-0.00195 0.0039c-0.0432041 0.520398-0.066008 1.042282-0.0683625 1.564459-8.82e-5 0.673156 0.033809 1.345887 0.1015625 2.015625 1.2625099-0.575271 2.8600771-1.141225 3.9453125-1.082031 2.647733 0.144422 9.627127 4.452329 14.152344 5.848406 4.525208 1.396076 10.111685-3.093066 15.74414-4.441 3.289022-0.787118 4.973263-0.0077 5.820313 0.612125 0.01097-0.08522 0.02138-0.170506 0.03125-0.255859 0.126952-0.893767 0.199909-1.794346 0.205078-2.697266-0.0068-0.471385-0.03024-0.441937-0.07031-0.911664-0.674389-0.06114-1.82732-0.07839-3.146485 0.361328-2.021905 0.673968-8.568212 2.37874-13.480469 2.243695-6.302061-0.410362-11.227619-4.731902-17.349611-4.693359z" style="opacity:.2"/>
 <path d="m9.953125 20.980469c-1.82885 0.01151-3.7717139 0.435678-5.8828125 1.451172l-0.00195 0.0039c-0.0432041 0.520398-0.066008 1.042282-0.0683625 1.564459-8.82e-5 0.673156 0.033809 1.345887 0.1015625 2.015625 1.2625099-0.575271 2.8600771-1.141225 3.9453125-1.082031 2.647733 0.144422 9.627127 4.452329 14.152344 5.848406 4.525208 1.396076 10.111685-3.093066 15.74414-4.441 3.289022-0.787118 4.973263-0.0077 5.820313 0.612125 0.01097-0.08522 0.02138-0.170506 0.03125-0.255859 0.126952-0.893767 0.199909-1.794346 0.205078-2.697266-0.0068-0.471385-0.03024-0.441937-0.07031-0.911664-0.674389-0.06114-1.82732-0.07839-3.146485 0.361328-2.021905 0.673968-8.568212 2.37874-13.480469 2.243695-6.302061-0.410362-11.227619-4.731902-17.349611-4.693359z" style="fill:#8a72ff"/>
 <path d="m32.65374 10c-2.10071-0.1041752-4.15668 0.582883-5.38017 2.267419-6.68e-4 4.98e-4 -0.0013 9.98e-4 -2e-3 0.0015-1.45922 2.036921-2.22855 4.432742-2.86666 6.766236-1e-6 5e-4 -1e-6 1e-3 0 0.0015-0.8822 3.267526-2.3719 6.360034-4.24714 9.18523-3.88706 5.827499-9.122845 10.898764-15.690395 13.458789-0.1479862 0.07178-0.2480185 0.20958-0.37675 0.318361-0.2494936 0.234416-0.056564 0.651464 0.28362 0.61309 4.60546-0.541071 8.197515-3.807503 11.594765-6.529568 2.73093-0.267511 5.42467-0.800778 8.06471-1.505615 0.0013-4.92e-4 0.0027-9.91e-4 4e-3 -0.0015 3.71027-1.043024 8.01958-2.488433 10.5515-5.615457 2.52389-3.095161 2.93279-6.902177 2.01078-10.633932-0.31352-1.491298-1.97049-3.019801-3.6-3.342106-0.0438-0.15412 0.0145-0.828525-0.02869-0.983947 0.35334-0.387138 1.087695-0.681862 1.438215-1.189148 0.38951-0.563719 0.716575-0.961561 0.516925-1.734315-0.01073-0.04084-0.02864-0.07944-0.0529-0.113999-0.42967-0.619809-1.51258-0.961277-2.22066-0.962538z" style="fill:#50ddee"/>
 <path d="m24 4a20 20 0 0 0 -20 20 20 20 0 0 0 0.0215 0.418 20 20 0 0 1 19.978 -19.418 20 20 0 0 1 19.979 19.582 20 20 0 0 0 0.021 -0.582 20 20 0 0 0 -20 -20z" fill="#ffffff" style="opacity:.1"/>
</svg>

<svg xmlns="http://www.w3.org/2000/svg" width="48" height="48" version="1.1" viewBox="0 0 48 48">
 <path opacity=".2" d="m4.0215 24.418a20 20 0 0 0 -0.0215 0.582 20 20 0 0 0 20 20 20 20 0 0 0 20 -20 20 20 0 0 0 -0.021 -0.418 20 20 0 0 1 -19.979 19.418 20 20 0 0 1 -19.978 -19.582z"/>
 <path style="fill:#4882e3" d="M 24.088417,18.058355 C 13.042722,18.058355 4,12.954305 4,24 4,35.045695 12.954305,44 24,44 35.045695,44 44,35.045695 44,24 44,12.954305 35.134112,18.058355 24.088417,18.058355 Z"/>
 <path style="fill:#335a9e" d="m 24,4 a 20,20 0 0 0 -20,20 20,20 0 0 0 0.021484,0.417969 19.999932,19.999932 0 0 1 0.033203,-0.896485 c 0.00862,1.99e-4 0.012875,-1.98e-4 0.021484,0 a 19.999932,19.999932 0 0 1 0.056641,-0.955078 c 2.1844959,-1.09489 4.1826651,-1.533092 6.0624995,-1.544922 1.584486,-0.01 3.086726,0.284225 4.554688,0.720704 5.027029,0.295818 9.464785,2.442608 14.744141,2.71289 4.971208,-0.219835 11.608721,-2.825647 14.193359,-3.453125 a 19.999932,19.999932 0 0 1 0.226562,1.619141 c 0.0021,2.35e-4 0.0057,-2.36e-4 0.0078,0 a 19.999932,19.999932 0 0 1 0.07422,1.480468 A 20,20 0 0 0 44,24 20,20 0 0 0 24,4 Z"/>
 <path style="fill:#7767c0" d="M 43.744141 20.96875 C 40.722756 21.829505 34.162065 24.248655 29.494141 24.455078 C 20.822358 24.011117 14.394855 18.56044 4.0136719 24.259766 C 4.0304629 25.26597 4.1231745 26.269471 4.2910156 27.261719 C 5.189552 26.956431 6.8745056 26.786207 9.9550781 27.523438 C 15.587532 28.871374 23.55486 28.112872 28.080078 26.716797 C 32.605306 25.32072 37.203822 24.779188 39.851562 24.634766 C 41.60975 24.538866 43.065327 25.420983 43.873047 26.035156 C 43.911494 25.697264 43.941725 25.358834 43.962891 25.019531 C 43.984056 24.680228 43.996158 24.340051 44 24 A 20 20 0 0 0 43.744141 20.96875 z"/>
 <path style="fill:#595afd" d="M 4.0175781 23.519531 C 4.0097938 23.679611 4.003934 23.839779 4 24 A 20 20 0 0 0 4.4296875 28.09375 C 5.4507249 27.991145 7.2845518 27.813243 10.521484 28.587891 C 16.019812 29.903734 21.23682 27.601119 25.654297 26.238281 C 25.924715 26.154851 26.19507 26.087339 26.460938 26.03125 C 26.457937 26.031177 26.452239 26.031325 26.449219 26.03125 C 18.81676 24.133443 16.012862 23.800253 4.0175781 23.519531 z M 26.460938 26.03125 C 27.418238 26.05339 28.491633 25.99703 29.611328 25.908203 C 28.608539 25.788633 27.555432 25.800352 26.460938 26.03125 z M 29.611328 25.908203 C 32.344225 26.234061 34.693657 27.524722 36.421875 27.941406 C 40.085987 28.824844 42.161778 29.240857 43.318359 29.142578 A 20 20 0 0 0 43.9375 25.509766 C 43.941221 25.455461 43.947814 25.399706 43.951172 25.345703 A 20 20 0 0 0 44 24 C 43.9988 23.96875 43.997494 23.9375 43.996094 23.90625 C 39.503815 24.500987 34.061425 25.555168 29.611328 25.908203 z"/>
 <path style="opacity:0.2" d="m 32.65374,11.0004 c -2.10071,-0.104175 -4.15668,0.582883 -5.38017,2.267419 -6.68e-4,4.98e-4 -0.0013,9.98e-4 -0.002,0.0015 -1.45922,2.036921 -2.22855,4.432742 -2.86666,6.766236 -1e-6,5e-4 -1e-6,0.001 0,0.0015 -0.8822,3.267526 -2.3719,6.360034 -4.24714,9.18523 -3.88706,5.827499 -9.122845,10.898764 -15.690395,13.458789 -0.1479862,0.07178 -0.2480185,0.20958 -0.37675,0.318361 -0.2494936,0.234416 -0.056564,0.651464 0.28362,0.61309 4.60546,-0.541071 8.197515,-3.807503 11.594765,-6.529568 2.73093,-0.267511 5.42467,-0.800778 8.06471,-1.505615 0.0013,-4.92e-4 0.0027,-9.91e-4 0.004,-0.0015 3.71027,-1.043024 8.01958,-2.488433 10.5515,-5.615457 2.52389,-3.095161 2.93279,-6.902177 2.01078,-10.633932 -0.31352,-1.491298 -1.97049,-3.019801 -3.6,-3.342106 -0.0438,-0.15412 0.0145,-0.828525 -0.02869,-0.983947 0.35334,-0.387138 1.087695,-0.681862 1.438215,-1.189148 0.38951,-0.563719 0.716575,-0.961561 0.516925,-1.734315 -0.01073,-0.04084 -0.02864,-0.07944 -0.0529,-0.113999 -0.42967,-0.619809 -1.51258,-0.961277 -2.22066,-0.962538 z"/>
 <path style="opacity:0.2" d="m 9.953125,21.980495 c -1.82885,0.01151 -3.7717139,0.435678 -5.8828125,1.451172 l -0.00195,0.0039 C 4.0251584,23.955965 4.0023545,24.477849 4,25.000026 c -8.82e-5,0.673156 0.033809,1.345887 0.1015625,2.015625 1.2625099,-0.575271 2.8600771,-1.141225 3.9453125,-1.082031 2.647733,0.144422 9.627127,4.452329 14.152344,5.848406 4.525208,1.396076 10.111685,-3.093066 15.74414,-4.441 3.289022,-0.787118 4.973263,-0.0077 5.820313,0.612125 0.01097,-0.08522 0.02138,-0.170506 0.03125,-0.255859 C 43.921874,26.803525 43.994831,25.902946 44,25.000026 43.9932,24.528641 43.96976,24.558089 43.92969,24.088362 43.255301,24.027222 42.10237,24.009972 40.783205,24.44969 38.7613,25.123658 32.214993,26.82843 27.302736,26.693385 21.000675,26.283023 16.075117,21.961483 9.953125,22.000026 Z"/>
 <path style="fill:#8a72ff" d="m 9.953125,20.980469 c -1.82885,0.01151 -3.7717139,0.435678 -5.8828125,1.451172 l -0.00195,0.0039 C 4.0251584,22.955939 4.0023545,23.477823 4,24 c -8.82e-5,0.673156 0.033809,1.345887 0.1015625,2.015625 1.2625099,-0.575271 2.8600771,-1.141225 3.9453125,-1.082031 2.647733,0.144422 9.627127,4.452329 14.152344,5.848406 4.525208,1.396076 10.111685,-3.093066 15.74414,-4.441 3.289022,-0.787118 4.973263,-0.0077 5.820313,0.612125 0.01097,-0.08522 0.02138,-0.170506 0.03125,-0.255859 C 43.921874,25.803499 43.994831,24.90292 44,24 43.9932,23.528615 43.96976,23.558063 43.92969,23.088336 43.255301,23.027196 42.10237,23.009946 40.783205,23.449664 38.7613,24.123632 32.214993,25.828404 27.302736,25.693359 21.000675,25.282997 16.075117,20.961457 9.953125,21 Z"/>
 <path style="fill:#50ddee" d="m 32.65374,10 c -2.10071,-0.1041752 -4.15668,0.582883 -5.38017,2.267419 -6.68e-4,4.98e-4 -0.0013,9.98e-4 -0.002,0.0015 -1.45922,2.036921 -2.22855,4.432742 -2.86666,6.766236 -1e-6,5e-4 -1e-6,0.001 0,0.0015 -0.8822,3.267526 -2.3719,6.360034 -4.24714,9.18523 -3.88706,5.827499 -9.122845,10.898764 -15.690395,13.458789 -0.1479862,0.07178 -0.2480185,0.20958 -0.37675,0.318361 -0.2494936,0.234416 -0.056564,0.651464 0.28362,0.61309 4.60546,-0.541071 8.197515,-3.807503 11.594765,-6.529568 2.73093,-0.267511 5.42467,-0.800778 8.06471,-1.505615 0.0013,-4.92e-4 0.0027,-9.91e-4 0.004,-0.0015 3.71027,-1.043024 8.01958,-2.488433 10.5515,-5.615457 C 37.11311,25.864824 37.52201,22.057808 36.6,18.326053 36.28648,16.834755 34.62951,15.306252 33,14.983947 32.9562,14.829827 33.0145,14.155422 32.97131,14 c 0.35334,-0.387138 1.087695,-0.681862 1.438215,-1.189148 0.38951,-0.563719 0.716575,-0.961561 0.516925,-1.734315 -0.01073,-0.04084 -0.02864,-0.07944 -0.0529,-0.113999 C 34.44388,10.342729 33.36097,10.001261 32.65289,10 Z"/>
 <path fill="#ffffff" style="opacity:0.1" d="m24 4a20 20 0 0 0 -20 20 20 20 0 0 0 0.0215 0.418 20 20 0 0 1 19.978 -19.418 20 20 0 0 1 19.979 19.582 20 20 0 0 0 0.021 -0.582 20 20 0 0 0 -20 -20z"/>
</svg>
